X: 29490
T: Nightshirt Schottische, The
R: hornpipe
M: 4/4
K: Gmajor
DG|:"G"B2BG D2GB|"Am7"c2cG E2EG|"D7"FGFE D2FA|dedc "G"B2DG|
"G"B2BG D2GB|"Am7"cccA E2EG|"D7"FGFE DdAF||1 "G"G2B2 G2DG:|2 "G"G2B2 G2EG||
|:"C"c2EG c2EG|cGEG c2c2|"G"B2DG BGDG|BGDG B2B2|
"Am7"c2cB A2AG|"D7"FGFE D4|dedc BcAF||1 "G"G2G2 G2EG:|2 "G"G2G2 G2||

